usr/share/icons/biglinux-icons-material-dark/symbolic/actions/character-set.svg

<svg xmlns="http://www.w3.org/2000/svg" viewBox="0 0 16 16">
<defs id="defs3051">
<style id="current-color-scheme" type="text/css">
.ColorScheme-Contrast{color:#dedede}
</style>
</defs>
<path d="M2 2v12h1V9h5v2h6V4H9V2zm1 1h5v5H3zm6 2h4v5H9z" class="ColorScheme-Contrast" style="fill:currentColor;fill-opacity:1;stroke:none"/>
</svg>

<svg xmlns="http://www.w3.org/2000/svg" viewBox="0 0 16 16">
  <defs id="defs3051">
    <style type="text/css" id="current-color-scheme">
      .ColorScheme-Text {
        color:#dedede;
      }
      </style>
  </defs>
 <path style="fill:currentColor;fill-opacity:1;stroke:none" 
     d="M 2 2 L 2 9 L 2 14 L 3 14 L 3 9 L 8 9 L 8 11 L 14 11 L 14 4 L 9 4 L 9 2 L 6 2 L 3 2 L 2 2 z M 3 3 L 8 3 L 8 8 L 3 8 L 3 3 z M 9 5 L 13 5 L 13 10 L 9 10 L 9 5 z "
     class="ColorScheme-Text"
     />
</svg>
